X:1
T:Title
%%score [ ( 1 2 ) ( 3 4 ) ]
L:1/8
Q:1/4=120
M:4/4
K:C
V:1 treble nm=" " snm=" "
V:2 treble 
V:3 treble nm="Midi_74"
V:4 treble 
V:1
[K:D]"^R. Heber" D2 D2 F2 F2 |"^Holy, holy, holy!" A4 A4 | B4 B2 B2 | A4 F4 || %4
w: Ho- ly, ho- ly,|ho- ly!|Lord God Al-|migh- ty!|
w: Ho- ly, ho- ly,|ho- ly!|Lord God Al-|migh- ty!|
 A3 A A2"^J.B Dykes" A2 | (d2 d2) c2 A2 | E2 A2 B3 A | A8 || D2 D2 F2 F2 | A4 A4 | B3 B B2 B2 | %11
w: ear- ly in the|morn * ing our|song shall rise to|thee;|ho- ly, ho- ly,|ho- ly!|mer- ci- ful and|
w: all thy works shall|praise thy name in|earth and sky and|sea;|ho- ly, ho- ly,|ho- ly!|mer- ci- ful and|
 A4 A4 || d4 A2 A2 | B4 F4 | G2 E2 E3 D | D8 ||[M:4/4] D2 D2 F2 F2 | A4 A4 z4 | B4 B2 B2 z4 | %19
w: migh- ty!|God in three|per- sons,|bles- sed Tri- ni-|ty!||||
w: migh- ty!|God in three|per- sons,|bles- sed Tri- ni-|ty!||||
 A4 F4 z4 |[M:4/4] A3 A A2 A2 | d2 d2 c2 A2 | E2 A2 B3 A | A8 | D2 D2 F2 F2 | A4 A4 | B3 B B2 B2 | %27
w: ||||||||
w: ||||||||
 A4 A4 | d4 A2 A2 | B4 F4 | G2 E2 E3 D | D8 |] %32
w: |||||
w: |||||
V:2
[K:D] x8 | x8 | x8 | x8 || x8 | x8 | x8 | x8 || x8 | x8 | x8 | x8 || x8 | x8 | x8 | x8 || %16
w: ||||||||||||||||
w: ||||||||||||||||
[M:4/4] A,2 A,2 D2 D2 | C2 E2 D2 C2 x4 | B,2 C2 D2 E2 x4 | F4 D4 x4 |[M:4/4] E2 E2 F2 E2 | %21
w: Ho- ly, ho- ly,|ho * ly, *|all the saints a-|dore thee,|cast- ing down their|
w: Ho- ly, ho- ly,|ho * ly, *|though the dark- ness|hide thee,|though the eye of|
 D2 E2 E2 F2 | E2 C2 D3 C | C8 | A,2 A,2 D2 D2 | C2 E2 D2 C2 | B,2 C2 D2 E2 | F4 D4 | D4 D2 D2 | %29
w: gol- den crowns a-|round the glas- sy|sea;|che- ru- bim and|se- ra- phim *|fal- ling down be-|fore thee,|which wert and|
w: sin- ful man thy|glo- ry may not|see,|on- ly thou art|ho * ly, *|there is none be-|side thee|per- fect in|
 D4 D2 =C2 | B,2 B,2 C3 D | D8 |] %32
w: art and *|ev- er- more shalt|be.|
w: power, in *|love and pu- ri-|ty.|
V:3
 z8 | z8 | z8 | z8 || z8 |[M:4/4] z8 | z8 | z8 || z8 | z8 |[M:4/4] z8 | z8 || z8 | z8 | z8 | z8 || %16
[K:D][M:4/4][K:bass] F,2 F,2 D,2 D,2 | E,2 G,2 F,2 A,2 z4 | G,2 A,2 B,2 C2 z4 | D2 A,2 A,4 z4 | %20
[M:4/4] A,2 A,2 A,2 A,2 | F,2 ^G,2 A,2 A,2 | C2 A,2 ^G,3 A, | A,4 !courtesy!=G,4 | %24
 F,2 F,2 D,2 D,2 | E,2 G,2 F,2 A,2 | G,2 A,2 B,2 C2 | D2 A,2 F,4 | %28
"^This edition produced by Andrew Sims 2012" F,2 G,2 A,2 =C2 | B,4 A,4 | G,2 G,2 G,3 F, | F,8 |] %32
V:4
 x8 | x8 | x8 | x8 || x8 |[M:4/4] x8 | x8 | x8 || x8 | x8 |[M:4/4] x8 | x8 || x8 | x8 | x8 | x8 || %16
[K:D][M:4/4][K:bass] D,2 D,2 B,,2 B,,2 | A,,4 D,4 x4 | G,,4 G,2 G,2 x4 | D,4 D,4 x4 | %20
[M:4/4] C,2 C,2 D,2 C,2 | B,,4 C,2 D,2 | E,2 E,2 E,3 A,, | A,,8 | D,2 D,2 B,,2 B,,2 | A,,4 D,4 | %26
 G,,3 G,, G,2 G,2 | D,4 D,4 | B,,4 F,,2 F,,2 | G,,4 D,4 | G,,2 G,,2 A,,3 D, | D,8 |] %32

